lib/svgs/team-stamp.svg

<?xml version="1.0" encoding="UTF-8"?>
<svg width="16px" height="16px" viewBox="0 0 16 16" version="1.1" xmlns="http://www.w3.org/2000/svg" xmlns:xlink="http://www.w3.org/1999/xlink">
    <!-- Generator: sketchtool 51.3 (57544) - http://www.bohemiancoding.com/sketch -->
    <title>team/team-stamp</title>
    <desc>Created with sketchtool.</desc>
    <defs></defs>
    <g id="Icons" stroke="none" stroke-width="1" fill="none" fill-rule="evenodd">
        <g id="Web" transform="translate(-147.000000, -2444.000000)" fill="#000000">
            <g id="team/team-stamp" transform="translate(147.000000, 2444.000000)">
                <path d="M1.33333333,14.0332845 L14.6666667,14.0332845 L14.6666667,15.3666178 L1.33333333,15.3666178 L1.33333333,14.0332845 L1.33333333,14.0332845 M14.6326667,9.09728451 L10,7.55261784 L10,3.84728451 L11.5446667,3.33195117 C11.8166667,3.24128451 12,2.98661784 12,2.69995117 L12,0.699951172 L4,0.699951172 L4,2.69995117 C4,2.98661784 4.18333333,3.24128451 4.45533333,3.33195117 L6,3.84728451 L6,7.55328451 L1.36733333,9.09728451 C0.550666667,9.36928451 0,10.1332845 0,10.9939512 L0,12.6999512 L16,12.6999512 L16,10.9939512 C16,10.1332845 15.4493333,9.36928451 14.6326667,9.09728451 L14.6326667,9.09728451" id="Shape"></path>
            </g>
        </g>
    </g>
</svg>

<svg xmlns="http://www.w3.org/2000/svg" viewBox="0 0 16 16">
    <path d="M1.333 14.033h13.334v1.334H1.333v-1.334m13.3-4.936L10 7.553V3.847l1.545-.515A.666.666 0 0 0 12 2.7v-2H4v2c0 .287.183.541.455.632L6 3.847v3.706L1.367 9.097A1.999 1.999 0 0 0 0 10.994V12.7h16v-1.706c0-.86-.55-1.625-1.367-1.897"/>
</svg>
